exported-svg/chrome.svg

<svg height="24" viewBox="0 0 24 24" width="24" xmlns="http://www.w3.org/2000/svg"><path d="m22.1444323 8.34172916c.5505268 1.27514083.8555677 2.68108274.8555677 4.15827084 0 5.7989899-4.7010101 10.5-10.5 10.5-.3814288 0-.7581073-.0203382-1.1290103-.0599894-.0309168-.0005292-.0619479-.0039345-.0926892-.0103244-5.22341797-.6052621-9.2783005-5.0439399-9.2783005-10.4296862 0-2.3123642.74747891-4.45014525 2.01399283-6.1848994.02022739-.03609176.0450624-.06989549.07424497-.10043849 1.91494632-2.55867571 4.96996609-4.21466211 8.4117622-4.21466211 4.2901379 0 7.9793344 2.57293603 9.6086925 6.25991111.0142366.02595816.0262364.05331732.0357398.08181805zm-9.9309646 13.65403234c.095166.002819.1906834.0042385.2865323.0042385 5.2467051 0 9.5-4.2532949 9.5-9.5 0-1.2360038-.2360434-2.4168768-.6655113-3.5h-6.0058215c1.0194993.82497775 1.6713328 2.0863669 1.6713328 3.5 0 .888071-.2572519 1.7160575-.7013014 2.4135054zm-1.0990198-.0960753 2.9978434-5.1971346c-.500536.1921487-1.0441166.2974484-1.6122913.2974484-1.73625 0-3.24283702-.9833039-3.99325769-2.4234084l-4.08853595-7.07254366c-.89914539 1.45143313-1.41820636 3.16307596-1.41820636 4.99595206 0 4.7760771 3.52447833 8.7289683 8.1144479 9.3996862zm-6.06250122-15.29745634 3.00272408 5.19425474c.33772109-2.15111089 2.19937634-3.7964846 4.44532924-3.7964846h8.3686933c-1.6040767-2.97685487-4.7501195-5-8.3686933-5-3.01833541 0-5.70790223 1.40762567-7.44805332 3.60222986zm10.50877282 7.59672794c.2798632-.5031045.4392805-1.0824142.4392805-1.6989578 0-1.9329966-1.5670034-3.5-3.5-3.5s-3.5 1.5670034-3.5 3.5c0 .5764934.1393787 1.1204331.38627678 1.5999599l.08659802.1498014c.01016438.0175828.0191389.0355268.02694851.0537387.61241089 1.0165781 1.72689169 1.6965 3.00017669 1.6965 1.2361512 0 2.3226258-.640842 2.9453235-1.6084258l.0815655-.1414039c.0103634-.0179662.0216733-.0350459.0338305-.0512125z"/></svg>

<?xml version="1.0" encoding="UTF-8"?>
<svg width="24px" height="24px" viewBox="0 0 24 24" version="1.1" xmlns="http://www.w3.org/2000/svg" xmlns:xlink="http://www.w3.org/1999/xlink">
    <!-- Generator: Sketch 55.2 (78181) - https://sketchapp.com -->
    <title>chrome</title>
    <desc>Created with Sketch.</desc>
    <g id="chrome" stroke="none" stroke-width="1" fill="none" fill-rule="evenodd">
        <path d="M22.1444323,8.34172916 C22.6949591,9.61686999 23,11.0228119 23,12.5 C23,18.2989899 18.2989899,23 12.5,23 C12.1185712,23 11.7418927,22.9796618 11.3709897,22.9400106 C11.3400729,22.9394814 11.3090418,22.9360761 11.2783005,22.9296862 C6.05488253,22.3244241 2,17.8857463 2,12.5 C2,10.1876358 2.74747891,8.04985475 4.01399283,6.3151006 C4.03422022,6.27900884 4.05905523,6.24520511 4.0882378,6.21466211 C6.00318412,3.6559864 9.05820389,2 12.5,2 C16.7901379,2 20.4793344,4.57293603 22.1086925,8.25991111 C22.1229291,8.28586927 22.1349289,8.31322843 22.1444323,8.34172916 Z M12.2134677,21.9957615 C12.3086337,21.9985805 12.4041511,22 12.5,22 C17.7467051,22 22,17.7467051 22,12.5 C22,11.2639962 21.7639566,10.0831232 21.3344887,9 L15.3286672,9 C16.3481665,9.82497775 17,11.0863669 17,12.5 C17,13.388071 16.7427481,14.2160575 16.2986986,14.9135054 L12.2134677,21.9957615 Z M11.1144479,21.8996862 L14.1122913,16.7025516 C13.6117553,16.8947003 13.0681747,17 12.5,17 C10.76375,17 9.25716298,16.0166961 8.50674231,14.5765916 L4.41820636,7.50404794 C3.51906097,8.95548107 3,10.6671239 3,12.5 C3,17.2760771 6.52447833,21.2289683 11.1144479,21.8996862 Z M5.05194668,6.60222986 L8.05467076,11.7964846 C8.39239185,9.64537371 10.2540471,8 12.5,8 L20.8686933,8 C19.2646166,5.02314513 16.1185738,3 12.5,3 C9.48166459,3 6.79209777,4.40762567 5.05194668,6.60222986 Z M15.5607195,14.1989578 C15.8405827,13.6958533 16,13.1165436 16,12.5 C16,10.5670034 14.4329966,9 12.5,9 C10.5670034,9 9,10.5670034 9,12.5 C9,13.0764934 9.1393787,13.6204331 9.38627678,14.0999599 L9.4728748,14.2497613 C9.48303918,14.2673441 9.4920137,14.2852881 9.49982331,14.3035 C10.1122342,15.3200781 11.226715,16 12.5,16 C13.7361512,16 14.8226258,15.359158 15.4453235,14.3915742 L15.526889,14.2501703 C15.5372524,14.2322041 15.5485623,14.2151244 15.5607195,14.1989578 Z" id="Combined-Shape" fill="#000000" fill-rule="nonzero"></path>
    </g>
</svg>
